X:1
T:Lorimer, 87.87 D
T:Lorimer, 87.87 D
T:Green Harmon Riddle, 1903
T:Public Domain Courtesy of the Cyber Hymnal™
C:Green Harmon Riddle, 1903
Z:Public Domain
Z:Courtesy of the Cyber Hymnal™
%%score ( 1 2 ) ( 3 4 )
L:1/8
Q:1/4=108
M:4/4
K:Ab
V:1 treble 
V:2 treble 
V:3 bass 
V:4 bass 
V:1
 [CE]2 | [CA]2 [EA]>[EB] [Ec]2 E2 | [DF]2 [FA]4 [EA]>[EB] | [Ec]3 [Ec] [EB]2 [=DA]2 | [EB]6 (c>d) | %5
 [Ae]2 [Ae]>[Ae] [Ad]2 [Ac]2 | [FB]2 [FA]4 [DF]>[DF] | [CE]2 [EA]2 [Ac]3 [EB] | [EA]6 [_Gc]2 | %9
 [Fd]2 [Fd]>[Fd] [Ec]2 [EB]2 | [Ec]2 [Ae]4 [Ac]>[GB] | [FA]3 [FA] [AB]2 [Ac]2 | [GB]6 (c>B) | %13
 [EA]2 [EA]>[EA] [_GB]2 [Gc]2 | [Fe]2 [Fd]4 [EA]>[FB] | [Ec]2 E2 [Ac]3 [EB] | [EA]6 |] %17
V:2
 x2 | x6 E2 | x8 | x8 | x6 E2 | x8 | x8 | x8 | x8 | x8 | x8 | x8 | x6 A2 | x8 | x8 | x2 E2 x4 | %16
 x6 |] %17
V:3
 [A,,A,]2 | [A,,A,]2 [C,A,]>[E,G,] A,2 [C,A,]2 | [D,A,]2 [D,D]4 [D,A,]>[E,G,] | %3
 A,3 A, [G,B,]2 [F,B,]2 | [E,G,]6 (A,>B,) | [A,C]2 [A,C]>[A,C] [A,F]2 [A,E]2 | %6
 [D,D]2 [D,D]4 [D,A,]>[D,A,] | [E,A,]2 [E,C]2 [E,E]3 [E,D] | [A,,C]6 A,2 | %9
 A,2 [F,A,]>[G,A,] A,2 [E,G,]2 | A,2 [A,C]4 [A,E]>[E,D] | [F,C]3 [F,C] [B,,=D]2 [B,,D]2 | %12
 [E,E]6 (E>D) | [A,C]2 [A,C]>[A,C] A,2 A,2 | [D,A,]2 [D,A,]4 [C,A,]>[D,A,] | %15
 [E,A,]2 [E,C]2 [E,E]3 [E,D] | [A,,C]6 |] %17
V:4
 x2 | x4 A,2 x2 | x8 | A,3 A, x4 | x6 A,2 | x8 | x8 | x8 | x6 A,2 | (D,E,) x A,2 x3 | A,2 x6 | x8 | %12
 x6 A,2 | x4 A,2 A,2 | x8 | x8 | x6 |] %17

